resources/haticons/SVG/stackoverflow1.svg

<!-- Generated by IcoMoon.io -->
<svg version="1.1" xmlns="http://www.w3.org/2000/svg" width="24" height="24" viewBox="0 0 24 24">
<title>stackoverflow1</title>
<path fill="#fe7a16" d="M18.986 21.865v-6.404h2.134v8.539h-19.276v-8.539h2.13v6.404zM6.111 19.731h10.739v-2.137h-10.739zM6.37 14.879l10.48 2.189 0.451-2.070-10.478-2.187zM7.729 9.823l9.705 4.53 0.903-1.95-9.706-4.53-0.902 1.936zM10.444 5.038l8.217 6.855 1.359-1.62-8.216-6.853-1.35 1.617zM15.751 0l-1.746 1.294 6.405 8.604 1.746-1.294-6.407-8.604z"></path>
</svg>

<svg xmlns="http://www.w3.org/2000/svg" width="24" height="24"><path fill="#fe7a16" d="M18.986 21.865v-6.404h2.134V24H1.844v-8.539h2.13v6.404zM6.111 19.731H16.85v-2.137H6.111zm.259-4.852l10.48 2.189.451-2.07-10.478-2.187zm1.359-5.056l9.705 4.53.903-1.95-9.706-4.53-.902 1.936zm2.715-4.785l8.217 6.855 1.359-1.62-8.216-6.853-1.35 1.617zM15.751 0l-1.746 1.294 6.405 8.604 1.746-1.294L15.749 0z"/></svg>
